packages/assets/static/images/icons/boat.svg

<svg width="24" height="24" viewBox="0 0 24 24" xmlns="http://www.w3.org/2000/svg">
<path d="M20.7244 10.3678L19.5 9.95906V5.25C19.5 4.85218 19.342 4.47064 19.0607 4.18934C18.7794 3.90804 18.3978 3.75 18 3.75H12.75V2.25C12.75 2.05109 12.671 1.86032 12.5303 1.71967C12.3897 1.57902 12.1989 1.5 12 1.5C11.8011 1.5 11.6103 1.57902 11.4697 1.71967C11.329 1.86032 11.25 2.05109 11.25 2.25V3.75H6C5.60218 3.75 5.22064 3.90804 4.93934 4.18934C4.65804 4.47064 4.5 4.85218 4.5 5.25V9.95906L3.27562 10.3678C2.97695 10.4674 2.71717 10.6584 2.53309 10.9138C2.34902 11.1692 2.24998 11.4761 2.25 11.7909V14.25C2.25 20.0194 11.4272 22.38 11.8181 22.4775C11.9375 22.5073 12.0625 22.5073 12.1819 22.4775C12.5728 22.38 21.75 20.0194 21.75 14.25V11.7909C21.75 11.4761 21.651 11.1692 21.4669 10.9138C21.2828 10.6584 21.0231 10.4674 20.7244 10.3678ZM6 5.25H18V9.45938L12.2372 7.53844C12.0832 7.48711 11.9168 7.48711 11.7628 7.53844L6 9.45938V5.25ZM20.25 14.25C20.25 16.5853 18.03 18.2812 16.1672 19.2966C14.8408 20.0004 13.4441 20.5625 12 20.9738C10.5646 20.5668 9.17603 20.01 7.85719 19.3125C4.4625 17.4703 3.75 15.5428 3.75 14.25V11.7909L11.25 9.29062V15.75C11.25 15.9489 11.329 16.1397 11.4697 16.2803C11.6103 16.421 11.8011 16.5 12 16.5C12.1989 16.5 12.3897 16.421 12.5303 16.2803C12.671 16.1397 12.75 15.9489 12.75 15.75V9.29062L20.25 11.7909V14.25Z"/>
</svg>

<svg viewBox="0 0 24 24" xmlns="http://www.w3.org/2000/svg" aria-hidden="true" fill="currentColor"><path d="M20.724 10.368 19.5 9.959V5.25a1.5 1.5 0 0 0-1.5-1.5h-5.25v-1.5a.75.75 0 1 0-1.5 0v1.5H6a1.5 1.5 0 0 0-1.5 1.5v4.71l-1.224.408A1.5 1.5 0 0 0 2.25 11.79v2.459c0 5.77 9.177 8.13 9.568 8.228.12.03.245.03.364 0 .39-.098 9.568-2.459 9.568-8.228v-2.46a1.5 1.5 0 0 0-1.026-1.422M6 5.25h12v4.21l-5.763-1.922a.75.75 0 0 0-.474 0L6 9.46zm14.25 9c0 2.335-2.22 4.031-4.083 5.047A21.4 21.4 0 0 1 12 20.974a21.3 21.3 0 0 1-4.143-1.662C4.463 17.47 3.75 15.543 3.75 14.25v-2.46l7.5-2.5v6.46a.75.75 0 1 0 1.5 0V9.29l7.5 2.5z"/></svg>
